src/DGFullScreen/skin/dark/img/DGRoundControl__fullscreenIcon_dark.svg

<svg xmlns="http://www.w3.org/2000/svg" width="16" height="16"><path fill="#fff" d="M1 3h5v1h-5z"/><path fill="#6C6C6C" d="M6 1h-5v5h2v-3h3zM10 15h5v-5h-2v3h-3z"/><path fill="#fff" d="M10 3h5v1h-5z"/><path fill="#6C6C6C" d="M15 6v-5h-5v2h3v3zM1 10v5h5v-2h-3v-3z"/><path fill="#4B4B4B" d="M1 1h5v1h-5zM10 1h5v1h-5zM13 10h2v1h-2zM10 13h3v1h-3zM3 13h3v1h-3zM1 10h2v1h-2z"/><path fill="#fff" d="M1 6h2v1h-2zM13 6h2v1h-2zM1 15h5v1h-5zM10 15h5v1h-5z"/></svg>

<svg xmlns="http://www.w3.org/2000/svg" width="16" height="16">
    <path d="M 1,3 H 6 V 4 H 1 z" fill="#fff"/>
    <path d="M 6,1 H 1 V 6 H 3 V 3 h 3 z m 4,14 h 5 v -5 h -2 v 3 h -3 z" fill="#6c6c6c"/>
    <path d="m 10,3 h 5 v 1 h -5 z" fill="#fff"/>
    <path d="M 15,6 V 1 h -5 v 2 h 3 V 6 z M 1,10 v 5 H 6 V 13 H 3 v -3 z" fill="#6c6c6c"/>
    <path d="M 1,1 H 6 V 2 H 1 z m 9,0 h 5 v 1 h -5 z m 3,9 h 2 v 1 h -2 z m -3,3 h 3 v 1 h -3 z m -7,0 h 3 v 1 H 3 z M 1,10 h 2 v 1 H 1 z" fill="#4b4b4b"/>
    <path d="M 1,6 H 3 V 7 H 1 z m 12,0 h 2 V 7 H 13 z M 1,15 h 5 v 1 H 1 z m 9,0 h 5 v 1 h -5 z" fill="#fff"/>
</svg>
